assets/libreofficewriter/original.svg

<svg viewBox="0 0 24 24" xmlns="http://www.w3.org/2000/svg" fill="#083FA6"><path d="m22 0v7l-7-7zm0 9v12c0 1.662-1.338 3-3 3h-14c-1.662 0-3-1.338-3-3v-18c0-1.662 1.338-3 3-3h8zm-16 1h5v-1h-5zm0 2h5v-1h-5zm0 2h5v-1h-5zm5 3h-5v1h5zm7-2h-12v1h12zm0-6h-6v5h6zm-1.5 2a.5.5 0 1 0 0-1 .5.5 0 0 0 0 1zm-2.5 0-1 2h3z"/></svg>

<svg xmlns="http://www.w3.org/2000/svg" fill="#083fa6" viewBox="0 0 24 24"><path d="M22 0v7l-7-7zm0 9v12c0 1.662-1.338 3-3 3H5c-1.662 0-3-1.338-3-3V3c0-1.662 1.338-3 3-3h8zM6 10h5V9H6zm0 2h5v-1H6zm0 2h5v-1H6zm5 3H6v1h5zm7-2H6v1h12zm0-6h-6v5h6zm-1.5 2a.5.5 0 1 0 0-1 .5.5 0 0 0 0 1M14 11l-1 2h3z"/></svg>
